packages/core/src/svgs/saitama.svg

<svg width="24" height="24" viewBox="0 0 24 24" fill="none" xmlns="http://www.w3.org/2000/svg">
<g clip-path="url(#clip0_31_18267)">
<path d="M0 0H24V24H0V0Z" fill="url(#paint0_linear_31_18267)"/>
<path fill-rule="evenodd" clip-rule="evenodd" d="M7.8 4.71436C7.11985 6.56233 7.11985 8.59209 7.8 10.4401L7.82571 10.4744L6.42857 11.6744L8.31429 12.9044L6 14.9658L9.13286 16.8515L9.79286 19.7144L11.9357 17.8029L14.1643 19.7144L14.8371 16.8515L18 14.9658L15.69 12.9215L17.5714 11.6744L16.1657 10.4829L16.2043 10.4401C16.59 9.53578 17.13 7.11864 16.2043 4.71436L13.3414 8.10436C12.9371 7.84642 12.4667 7.71098 11.9871 7.71436C11.3871 7.71436 10.8986 7.92007 10.6371 8.07864L7.8 4.71436ZM7.45286 14.7815L9.03429 13.3715L9.97714 13.9844L10.3971 15.4286H13.5086L13.9629 14.0658L15.0771 13.3244L14.9314 13.4529L16.5471 14.7815L14.0871 16.2815L13.6971 18.1501L11.9314 16.7315L10.29 18.1458L9.79286 16.2772L7.45286 14.7772V14.7815ZM14.0014 12.9944L16.1314 11.5801L13.65 9.45007L13.3071 10.9929L14.0014 12.9944ZM12.9257 8.88007C12.6387 8.71911 12.3162 8.6322 11.9871 8.62721C11.5757 8.62721 11.2286 8.77293 10.9929 8.91864L11.5157 11.1086L10.6843 13.6201L11.0443 14.5715H11.5714V13.2858H12.4286V14.5715H12.8743L13.2129 13.6201L12.4029 11.1086L12.9257 8.88007ZM10.2814 9.49721L7.83 11.5801L9.99 12.9558L10.6414 10.9886L10.2814 9.49721ZM9.99857 8.60578L8.30143 6.60007C8.19 6.93436 8.13 7.54293 8.14286 8.14293C8.15571 8.76864 8.29286 9.41578 8.52857 9.86578L9.99857 8.60578ZM13.9757 8.63578L15.4586 9.88721C15.7272 9.33622 15.8637 8.73017 15.8571 8.11721C15.8571 7.59864 15.7843 7.13578 15.7286 6.78864L15.6986 6.60007L13.9757 8.63578Z" fill="white"/>
</g>
<defs>
<linearGradient id="paint0_linear_31_18267" x1="0" y1="12" x2="22.6071" y2="12" gradientUnits="userSpaceOnUse">
<stop offset="0.27" stop-color="#2F239F"/>
<stop offset="1" stop-color="#81BBE3"/>
</linearGradient>
<clipPath id="clip0_31_18267">
<rect width="24" height="24" fill="white"/>
</clipPath>
</defs>
</svg>

<svg xmlns="http://www.w3.org/2000/svg" width="24" height="24" fill="none" viewBox="0 0 24 24"><g clip-path="url(#a)"><path fill="url(#b)" d="M0 0h24v24H0z"/><path fill="#fff" fill-rule="evenodd" d="M7.8 4.714a8.3 8.3 0 0 0 0 5.726l.026.034-1.397 1.2 1.885 1.23L6 14.966l3.133 1.886.66 2.862 2.143-1.911 2.228 1.911.673-2.862L18 14.966l-2.31-2.044 1.881-1.248-1.405-1.191.038-.043c.386-.904.926-3.321 0-5.726l-2.863 3.39a2.5 2.5 0 0 0-1.354-.39c-.6 0-1.088.206-1.35.365zm-.347 10.067 1.581-1.41.943.613.42 1.445h3.112l.454-1.363 1.114-.742-.146.129 1.616 1.329-2.46 1.5-.39 1.868-1.766-1.418-1.641 1.414-.497-1.869-2.34-1.5zM14 12.994l2.13-1.414-2.481-2.13-.343 1.543zM12.926 8.88a2 2 0 0 0-.939-.253 1.9 1.9 0 0 0-.994.292l.523 2.19-.832 2.511.36.952h.527v-1.286h.858v1.286h.445l.339-.952-.81-2.511zm-2.645.617L7.83 11.58l2.16 1.376.651-1.967zM10 8.606 8.3 6.6c-.111.334-.171.943-.158 1.543.013.626.15 1.273.386 1.723zm3.977.03 1.483 1.251a3.94 3.94 0 0 0 .398-1.77c0-.518-.073-.981-.128-1.328l-.03-.189z" clip-rule="evenodd"/></g><defs><linearGradient id="b" x1="0" x2="22.607" y1="12" y2="12" gradientUnits="userSpaceOnUse"><stop offset=".27" stop-color="#2F239F"/><stop offset="1" stop-color="#81BBE3"/></linearGradient><clipPath id="a"><path fill="#fff" d="M0 0h24v24H0z"/></clipPath></defs></svg>
